img/icon-github-edit-2.svg

<svg fill="none" height="14" viewBox="0 0 14 14" width="14" xmlns="http://www.w3.org/2000/svg"><path clip-rule="evenodd" d="m11.6254 9.87v-5.495c-.0262-.6825-.2975-1.28625-.8225-1.8025s-1.11996-.79625-1.80246-.8225h-.875v-1.75l-2.625 2.625 2.625 2.625v-1.75h.875c.23625.0175.41999.09625.60375.27125.18375.175.2625.3675.27125.60375v5.495c-.33313.1919-.59352.4885-.74067.8436-.14716.3552-.17283.749-.07303 1.1202.0998.3713.31948.6992.62487.9327.3054.2335.67939.3595 1.06379.3585.3845.001.7585-.125 1.0639-.3585s.525-.5614.6248-.9327c.0998-.3712.0742-.765-.073-1.1202-.1472-.3551-.4075-.6517-.7407-.8436zm-.875 2.555c-.5775 0-1.04996-.4812-1.04996-1.05s.48126-1.05 1.04996-1.05c.5688 0 1.05.4812 1.05 1.05s-.4812 1.05-1.05 1.05zm-5.24996-9.8c0-.97125-.77875-1.75-1.75-1.75-.38444-.001016-.75843.12503-1.06383.35853-.30539.2335-.52507.56137-.62487.93263-.0998.37125-.07412.76508.07303 1.12023.14715.35516.40754.65173.74067.84361v5.74c-.33313.1919-.59352.4885-.74067.8436-.14715.3552-.17283.749-.07303 1.1202.0998.3713.31948.6992.62487.9327.3054.2335.67939.3595 1.06383.3585.38443.001.75842-.125 1.06382-.3585.30539-.2335.52507-.5614.62487-.9327.0998-.3712.07413-.765-.07303-1.1202-.14715-.3551-.40754-.6517-.74066-.8436v-5.74c.51625-.2975.875-.8575.875-1.505zm-.7 8.75c0 .5775-.48125 1.05-1.05 1.05s-1.05-.4812-1.05-1.05.48125-1.05 1.05-1.05 1.05.4812 1.05 1.05zm-1.05-7.7c-.5775 0-1.05-.48125-1.05-1.05s.48125-1.05 1.05-1.05 1.05.48125 1.05 1.05-.48125 1.05-1.05 1.05z" fill="#000" fill-rule="evenodd"/></svg>

<svg width="14" height="14" viewBox="0 0 14 14" fill="none" xmlns="http://www.w3.org/2000/svg">
<path fill-rule="evenodd" clip-rule="evenodd" d="M11.6254 9.87V4.375C11.5992 3.6925 11.3279 3.08875 10.8029 2.5725C10.2779 2.05625 9.68294 1.77625 9.00044 1.75H8.12544V0L5.50044 2.625L8.12544 5.25V3.5H9.00044C9.23669 3.5175 9.42043 3.59625 9.60419 3.77125C9.78794 3.94625 9.86669 4.13875 9.87544 4.375V9.87C9.54231 10.0619 9.28192 10.3585 9.13477 10.7136C8.98761 11.0688 8.96194 11.4626 9.06174 11.8338C9.16154 12.2051 9.38122 12.533 9.68661 12.7665C9.99201 13 10.366 13.126 10.7504 13.125C11.1349 13.126 11.5089 13 11.8143 12.7665C12.1197 12.533 12.3393 12.2051 12.4391 11.8338C12.5389 11.4626 12.5133 11.0688 12.3661 10.7136C12.2189 10.3585 11.9586 10.0619 11.6254 9.87ZM10.7504 12.425C10.1729 12.425 9.70044 11.9438 9.70044 11.375C9.70044 10.8062 10.1817 10.325 10.7504 10.325C11.3192 10.325 11.8004 10.8062 11.8004 11.375C11.8004 11.9438 11.3192 12.425 10.7504 12.425ZM5.50044 2.625C5.50044 1.65375 4.72169 0.875 3.75044 0.875C3.366 0.873984 2.99201 1.00003 2.68661 1.23353C2.38122 1.46703 2.16154 1.7949 2.06174 2.16616C1.96194 2.53741 1.98762 2.93124 2.13477 3.28639C2.28192 3.64155 2.54231 3.93812 2.87544 4.13V9.87C2.54231 10.0619 2.28192 10.3585 2.13477 10.7136C1.98762 11.0688 1.96194 11.4626 2.06174 11.8338C2.16154 12.2051 2.38122 12.533 2.68661 12.7665C2.99201 13 3.366 13.126 3.75044 13.125C4.13487 13.126 4.50886 13 4.81426 12.7665C5.11965 12.533 5.33933 12.2051 5.43913 11.8338C5.53893 11.4626 5.51326 11.0688 5.3661 10.7136C5.21895 10.3585 4.95856 10.0619 4.62544 9.87V4.13C5.14169 3.8325 5.50044 3.2725 5.50044 2.625ZM4.80044 11.375C4.80044 11.9525 4.31919 12.425 3.75044 12.425C3.18169 12.425 2.70044 11.9438 2.70044 11.375C2.70044 10.8062 3.18169 10.325 3.75044 10.325C4.31919 10.325 4.80044 10.8062 4.80044 11.375ZM3.75044 3.675C3.17294 3.675 2.70044 3.19375 2.70044 2.625C2.70044 2.05625 3.18169 1.575 3.75044 1.575C4.31919 1.575 4.80044 2.05625 4.80044 2.625C4.80044 3.19375 4.31919 3.675 3.75044 3.675Z" fill="black"/>
</svg>
